img/twitter.svg

<?xml version="1.0" encoding="UTF-8"?>
<svg version="1.1" viewBox="0 0 6769 2256" xmlns="http://www.w3.org/2000/svg" xmlns:cc="http://creativecommons.org/ns#" xmlns:dc="http://purl.org/dc/elements/1.1/" xmlns:rdf="http://www.w3.org/1999/02/22-rdf-syntax-ns#">
 <metadata>
  <rdf:RDF>
   <cc:Work rdf:about="">
    <dc:format>image/svg+xml</dc:format>
    <dc:type rdf:resource="http://purl.org/dc/dcmitype/StillImage"/>
    <dc:title>twitter</dc:title>
   </cc:Work>
  </rdf:RDF>
 </metadata>
 <defs>
  <style>.cls-1,.cls-6{fill:#4ab969;}.cls-2,.cls-3,.cls-4{fill:none;stroke-miterlimit:10;stroke-width:20px;}.cls-2{stroke:#4ab969;}.cls-2,.cls-4{stroke-linecap:round;}.cls-3,.cls-4{stroke:#db4140;}.cls-5{fill:#0091d0;}.cls-6{font-size:1000px;font-family:Rockwell, Rockwell;letter-spacing:-0.03em;}.cls-7,.cls-8{fill:#db4140;}.cls-8{letter-spacing:-0.04em;}.cls-9{fill:#a7a9ac;}</style>
 </defs>
 <title>twitter</title>
 <path class="cls-1" d="m559.5 848a466.91 466.91 0 1 1-182.35 36.8 465.53 465.53 0 0 1 182.35-36.8m0-40c-280.84 0-508.5 227.66-508.5 508.5s227.66 508.5 508.5 508.5 508.5-227.66 508.5-508.5-227.66-508.5-508.5-508.5z"/>
 <circle class="cls-2" cx="558.96" cy="1316" r="433.04"/>
 <line class="cls-3" x1="723.91" x2="826.49" y1="1595.3" y2="1514.5"/>
 <line class="cls-3" x1="694.43" x2="764.67" y1="1569.2" y2="1459.1"/>
 <line class="cls-3" x1="668.45" x2="694.26" y1="1559.8" y2="1431.8"/>
 <line class="cls-3" x1="638.21" x2="625.26" y1="1559.8" y2="1429.9"/>
 <line class="cls-3" x1="600.42" x2="563.2" y1="1568.8" y2="1443.6"/>
 <line class="cls-3" x1="557.28" x2="508.13" y1="1585.5" y2="1464.5"/>
 <line class="cls-3" x1="511.21" x2="459.87" y1="1606.2" y2="1486.2"/>
 <line class="cls-3" x1="462.88" x2="419.99" y1="1626.5" y2="1503.2"/>
 <line class="cls-3" x1="409.84" x2="393.17" y1="1640.6" y2="1511.1"/>
 <line class="cls-3" x1="346.94" x2="386.85" y1="1636.5" y2="1512.2"/>
 <line class="cls-3" x1="287.74" x2="389.65" y1="1596.2" y2="1514.6"/>
 <line class="cls-3" x1="254.64" x2="384.09" y1="1523.6" y2="1506.6"/>
 <line class="cls-3" x1="264.19" x2="384.88" y1="1450" y2="1499.8"/>
 <line class="cls-3" x1="298.16" x2="398.62" y1="1393.6" y2="1477"/>
 <line class="cls-3" x1="341.36" x2="428.56" y1="1348" y2="1445.1"/>
 <line class="cls-3" x1="387.6" x2="468.93" y1="1307.7" y2="1409.9"/>
 <line class="cls-3" x1="431.38" x2="513.32" y1="1271.5" y2="1373.2"/>
 <line class="cls-3" x1="466.18" x2="556.27" y1="1240.2" y2="1334.7"/>
 <line class="cls-3" x1="484.32" x2="593.55" y1="1218.5" y2="1290"/>
 <line class="cls-3" x1="484.23" x2="614.76" y1="1221.8" y2="1224.5"/>
 <path class="cls-4" d="m483.32 1215c-29 58.92-348.1 241.21-195.79 381.61 174 160.44 248.37-129.62 436-0.91"/>
 <path class="cls-5" d="m320 981-3.47 185.05 23.94 0.45 22.53-23.5 0.41-22.1 69.05 1.29-0.86 46 46 0.86-0.84 45.11 138.1 2.59 0.84-45.11 46 0.86 3.08-115.07c229.31 4.32 227.22 118.48 227.22 118.48 3.47-185.05-121.78-185.56-225.8-188.43l-231.2-3.4-0.84 45.11-69.05-1.29 0.43-23-21.67-23.43z"/>
 <text class="cls-6" transform="scale(.97701 1.0235)" x="1174.4525" y="1634.5253">sc<tspan class="cls-7" x="2172.8574" y="1634.5253" stroke-width="1.0747">R</tspan><tspan class="cls-8" x="2795.1248" y="1634.5253" stroke-width="1.0747">N</tspan><tspan class="cls-7" x="3524.96" y="1634.5253" stroke-width="1.0747">A</tspan><tspan class="cls-9" x="4248.4971" y="1634.5253" stroke-width="1.0747">-</tspan><tspan class="cls-5" x="4602.0874" y="1634.5253" stroke-width="1.0747">tools</tspan></text>
</svg>

<svg xmlns="http://www.w3.org/2000/svg" viewBox="0 0 6769 2256"><defs><style>.cls-1,.cls-6{fill:#4ab969;}.cls-2,.cls-3,.cls-4{fill:none;stroke-miterlimit:10;stroke-width:20px;}.cls-2{stroke:#4ab969;}.cls-2,.cls-4{stroke-linecap:round;}.cls-3,.cls-4{stroke:#db4140;}.cls-5{fill:#0091d0;}.cls-6{font-size:1000px;font-family:Rockwell, Rockwell;letter-spacing:-0.03em;}.cls-7,.cls-8{fill:#db4140;}.cls-8{letter-spacing:-0.04em;}.cls-9{fill:#a7a9ac;}</style></defs><title>twitter</title><g id="Layer_19" data-name="Layer 19"><path class="cls-1" d="M559.5,848a466.91,466.91,0,1,1-182.35,36.8A465.53,465.53,0,0,1,559.5,848m0-40C278.66,808,51,1035.66,51,1316.5S278.66,1825,559.5,1825,1068,1597.34,1068,1316.5,840.34,808,559.5,808Z"/><circle class="cls-2" cx="558.96" cy="1315.96" r="433.04"/><line class="cls-3" x1="723.91" y1="1595.26" x2="826.49" y2="1514.49"/><line class="cls-3" x1="694.43" y1="1569.19" x2="764.67" y2="1459.14"/><line class="cls-3" x1="668.45" y1="1559.79" x2="694.26" y2="1431.82"/><line class="cls-3" x1="638.21" y1="1559.77" x2="625.26" y2="1429.86"/><line class="cls-3" x1="600.42" y1="1568.77" x2="563.2" y2="1443.64"/><line class="cls-3" x1="557.28" y1="1585.47" x2="508.13" y2="1464.52"/><line class="cls-3" x1="511.21" y1="1606.21" x2="459.87" y2="1486.17"/><line class="cls-3" x1="462.88" y1="1626.46" x2="419.99" y2="1503.15"/><line class="cls-3" x1="409.84" y1="1640.61" x2="393.17" y2="1511.12"/><line class="cls-3" x1="346.94" y1="1636.54" x2="386.85" y2="1512.23"/><line class="cls-3" x1="287.74" y1="1596.17" x2="389.65" y2="1514.56"/><line class="cls-3" x1="254.64" y1="1523.57" x2="384.09" y2="1506.56"/><line class="cls-3" x1="264.19" y1="1450" x2="384.88" y2="1499.81"/><line class="cls-3" x1="298.16" y1="1393.62" x2="398.62" y2="1477.01"/><line class="cls-3" x1="341.36" y1="1347.95" x2="428.56" y2="1445.12"/><line class="cls-3" x1="387.6" y1="1307.73" x2="468.93" y2="1409.86"/><line class="cls-3" x1="431.38" y1="1271.52" x2="513.32" y2="1373.16"/><line class="cls-3" x1="466.18" y1="1240.17" x2="556.27" y2="1334.67"/><line class="cls-3" x1="484.32" y1="1218.51" x2="593.55" y2="1290.02"/><line class="cls-3" x1="484.23" y1="1221.75" x2="614.76" y2="1224.47"/><path class="cls-4" d="M483.32,1215c-29,58.92-348.1,241.21-195.79,381.61,174,160.44,248.37-129.62,436-.91"/><path class="cls-5" d="M320,981l-3.47,185.05,23.94.45L363,1143l.41-22.1,69.05,1.29-.86,46,46,.86-.84,45.11,138.1,2.59.84-45.11,46,.86,3.08-115.07C894.09,1061.75,892,1175.91,892,1175.91c3.47-185.05-121.78-185.56-225.8-188.43h0L435,984.08l-.84,45.11-69.05-1.29.43-23-21.67-23.43Z"/><text class="cls-6" transform="translate(1147.45 1672.99) scale(1.05 1.1)">sc<tspan class="cls-7" x="929" y="0">R</tspan><tspan class="cls-8" x="1508.01" y="0">N</tspan><tspan class="cls-7" x="2187.11" y="0">A</tspan><tspan class="cls-9" x="2860.35" y="0">-</tspan><tspan class="cls-5" x="3189.36" y="0">tools</tspan></text></g></svg>
